X:62
T:POLKAS PIQUEES de RUFFIGNE
Z: Yves BELOTTEAU
M:4/4
L:1/8
Q:1/4=120
K:G
|d3/2 z/2 B3/2 z/2 A/2B/2c/2B/2A3/2 z/2 |D/2E/2F/2G/2Ac BABG|d3/2 z/2 B3
/2 z/2 A/2B/2c/2B/2A3/2 z/2 |D/2E/2F/2G/2Ac BABG|
G3/2 z/2 GA BB/2A/2GB|A3/2 z/2 D/2E/2F/2G/2 AcBA|BGGA BB/2A/2GB|A3/2 z/2
 D/2E/2F/2G/2 AcBA|
BGG3/2 z/2 d3/2 z/2 B3/2 z/2 |A/2B/2c/2B/2A3/2 z/2 c3/2 z/2 A3/2 z/2 |F/
2A/2F/2D/2d3/2 z/2 d3/2 z/2 B3/2 z/2 |A/2B/2c/2B/2A3/2 z/2 c3/2 z/2 A3/2
 z/2 |
F/2A/2F/2D/2d3/2 z/2 G3/2 z/2 Bd/2B/2|GBA/2G/2A/2B/2 c3/2 z/2 Ac/2A/2|FA
G/2F/2G/2B/2 d3/2 z/2 Bd/2B/2|GBA/2G/2A/2B/2 c3/2 z/2 Ac/2A/2|
FAG/2F/2G/2B/2 d3/2 z/2 ce|A3/2 z/2 G/2F/2G/2A/2 G3/2|
